X:1
T:Sweet Gemma - Bateson
T:James Gibb editions
T:#
%%score 1 2 3 4
L:1/8
Q:1/4=120
M:4/4
K:Bb
V:1 treble nm="Soprano I" snm="S I"
V:2 treble nm="Soprano II" snm="S II"
V:3 treble nm="Alto" snm="A"
V:4 treble nm="Tenor" snm="T"
V:1
"^Sweet Gemma""^Thomas Bateson\n (1575-1630)""^SSATB" z4!p! B4 | A4 A4 | z8 | z2!mf! d=e f2 d2 | %4
w: Sweet|Gem- ma,||when I first be-|
 g2 c2 d4 |[M:4/4] d4 z4 | z2 d2 B3 A | G2 G2 z2 g2 | e3 d c2 c2 | z2 c2 A3 G | F2 F2 z2 f2 | %11
w: held thy beau-|ty,|I vow'd thee|ser- vice, I|vow'd thee ser- vice,|I vow'd thee|ser- vice, I|
 d3 c B2 B2 | c3 A d3 B | e4 d2 de | f2 d2 g4 | ^f4 =f3 d | g3 c d4 | =B8 || z4!f! d4 | d8 | %20
w: vow'd thee ser- vice,|ho- nour, love and|du- ty, ho- nour,|love and du-|ty, ho- nour,|love and du-|ty;|O|then,|
 z4 B4 | A4 d4 | A2 d2 c2 A2 | =B2 z2 z2 g2 | f2 e2 d2 c2- | c2 B4 A2 | B2 d2 f3 e | d2 c2 B2 A2 | %28
w: O|then, O|then, I said the|best, I|said the best, I|* said the|best Is hi- ther|come to make me|
 G3 A BB A2- | AG G4 ^F2 | G4 z2!p! d2 | d4 z2 A2 | =B4 z2 g2 | =e4 z2 d2 | =B4 z4 | (G3 A _B4- | %36
w: blest, is hi- ther come|* to make me|blest; But|thou, a-|las! a-|las! a-|las!|a\- * *|
 B4 A2 G2) | F2 G2 A4- | A8 | A8 | d8 | d2 d2 c2 B2 | A3 A G2 A2 | A6 A2 | A3!f! A GA B2- | %45
w: |las! a- las!|||sweet|thou Dost not re-|gard, dost not re-|gard my|vow! Go, go, let me|
 B2 A2 B2 d2 | c2 f2 d2 c2 | d2 d2 dcBA | G2 g2 gfed | c2 f2 fedc | d8 | z2 f2 fedc | d8 | %53
w: * not see, go,|go, let me not|see, go, go let me not|see, go, go, let me not|see, go, go, let me not|see,|go, go, let me not|see,|
 z4!p! B4- | B4 A2 G2 | (^F2 =E2) F4 | G8 | z4 f4- | f2 ed e2 c2 | d8 | z4 d4- | d4 c2 B2 | A4 G4 | %63
w: Cru\-|* el, though|fair\- * est|thee,|cru\-|* el, though fair- est|thee,|cru\-|* el, though|fair- est|
[Q:1/4=118] ^F2[Q:1/4=116] D2[Q:1/4=113] G4- |[Q:1/4=109] G4[Q:1/4=105] ^F4 |[Q:1/4=104] G16 |] %66
w: thee, though fair\-|* est|thee.|
V:2
!p! G8 | ^F4 F4 | z2!mf! AB c2 A2 | B2 B2 A4 | G3 g ^f4 |[M:4/4] ^f4 z2 d2 | B3 A G2 G2 | %7
w: Sweet|Gem- ma,|when I first be-|held thy beau-|ty, thy beau-|ty, I|vow'd thee ser- vice,|
 z2 g2 e3 d | c2 c2 z2 c2 | A3 G F2 F2 | z2 f2 d3 c | B2 B2 F3 G | A2 F4 (B2- | B2 A2) B2 Bc | %14
w: I vow'd thee|ser- vice, I|vow'd thee ser- vice,|I vow'd thee|ser- vice, ho- nour,|love and du\-|* * ty, ho- nour,|
 d3 c (B2 c2) | d2 A3 F B2- | BA (G4 ^F2) | G8 || z4!f! B4 | A8 | z4 d4 | d8 | z8 | z2 d2 d3 c | %24
w: love and du\- *|ty, ho- nour, love|* and du\- *|ty;|O|then,|O|then,||I said the|
 d2 g2 f2 e2 | d4 c4 | d4 z2 d2 | f3 e d3 c | B2 c2 d3 c | B4 A4 | =B4 z2!p! _B2 | A2 A2 d4 | %32
w: best, I said the|best, the|best Is|hi- ther come to|make me blest, to|make me|blest; But|thou, a- las!|
 z2 =B2 =e4 | z2 ^c2 d4 | z2 d2 =B4 | z8 | z8 | (d2 =e2 f4- | f4) =e4- | e4 (d4- | d2 c2 B4) | %41
w: a- las!|a- las!|a- las!|||a\- * *|* las!|* sweet||
 A3 B A3 G | ^F2 f2 =e2 d2 | ^c2 (d4 c2) | d2!f! d2 =c2 d2 | e2 c2 d2 f2 | f3 f g2 g2 | %47
w: thou Dost not re-|gard, dost not re-|gard my *|vow! Go, go, let|me not see, go,|go, let me not|
 ^f2 =f2 fedc | B2 e2 edcB | A3 B c2 c2 | B2 f2 fedc | d2 d2 c2 f2 | d8 | z4!p! d4- | d4 c2 B2 | %55
w: see, go, go let me not|see, go, go, let me not|see, let me not|see, go, go, let me not|see, let me not|see,|Cru\-|* el, though|
 (A2 G2) A4 | =B4 G2 G2 | A8 | z8 | z8 | F6 GA | B4 c4 | d4 d4- | d4 c2 B2 | A3 G A4 | =B16 |] %66
w: fair\- * est|thee, fair- est|thee,|||cru- el, though|fair- est|thee, cru\-|* el, though|fair\- * est|thee.|
V:3
 z4!p! G,4 | D4 D2!mf! D=E | F2 D2 _E2 F2 | G4 D2 F2 | E4 D4 |[M:4/4] z2 D2 B,3 A, | %6
w: Sweet|Gem- ma, when I|first be- held thy|beau- ty, thy|beau- ty,|I vow'd thee|
 G,2 G,2 z2 G2 | E3 D C2 C2 | z2 C2 A,3 G, | F,2 F,2 z2 F2 | D3 C B,2 B,2 | B,3 C D2 B,2 | %12
w: ser- vice, I|vow'd thee ser- vice,|I vow'd thee|ser- vice, I|vow'd thee ser- vice,|ho- nour, love and|
 F4 B,2 G,2 | C4 B,4- | B,2 B,2 E4 | D4 D3 B, | E2 E2 D4 | G,4 z4 || z4!f! G4- | G4 ^F4 | z4 D4 | %21
w: du- ty, and|du- ty,|* and du-|ty, ho- nour,|love and du-|ty;|O|* then,|O|
 D8 | z2 D2 =E2 ^F2 | G3 _B A2 G2 | A4 z2 G2 | F4 F4 | F2 B,2 D3 C | B,4 B,4 | E4 D4 | D4 D4 | %30
w: then,|I said the|best, I said the|best, I|said the|best Is hi- ther|come to|make me|blest, me|
 D4 z2!p! G2 | ^F4 z2 F2 | G4 z2 G2 | A4 z2 A2 | G4 z2 G,2 | D8 | z2 (D4 =E2 | F6 =ED) | %38
w: blest; But|thou, a-|las! a-|las! a-|las! a-|las!|a\- *||
 A4 z2 (=E2 | F6 G2) | A4 G4 | ^F2 D2 =F2 G2 | D4 z2 F2 | =E2 D2 A3 E | ^F2!f! D2 _E2 D2 | %45
w: las! a\-||las! sweet|thou Dost not re-|gard, dost|not re- gard my|vow! Go, go, let|
 C2 F2 B,3 B, | C2 D2 D2 G,2 | D2 D2 D2 D2 | E6 E2 | F8- | F4 F2 FE | DC B,4 A,2 | B,4 z4 | z8 | %54
w: me not see, go,|go, let me not|see, go, go, let|me not|see,|* go, go, let|me not see, not|see,||
 z8 | z4!p! D4- | D4 C2 B,2 | A,2 G,2 A,3 G, | (F,2 B,4) A,2 | B,2 F,4 G,A, | B,2 C2 D4 | z4 C4- | %62
w: |Cru\-|* el, though|fair\- est thee, though|fair\- * est|thee, cru- el, though|fair- est thee,|cru\-|
 C4 B,2 A,2 | B,4 (A,2 G,2) | A,2 D2 D2 D2 | D16 |] %66
w: * el, though|fair- est *|thee, though fair- est|thee.|
V:4
[K:C] z8 | z8 | z8 | z8 | z8 |[M:4/4] z8 | z8 | z8 | z8 |[M:4/4] z8 | z8 | z8 | z8 |[M:4/4] z8 | %14
w: ||||||||||||||
 z8 | z8 | z8 | z8 ||[K:Bb][M:4/4][K:treble-8] z4!f! (B2 c2 | d4) A4 | z4 G4- | G4 ^F4 | %22
w: ||||O *|* then,|O|* then,|
 z2 B2 c2 d2 | G4 z4 | z4 z2 G2 | A2 B2 c3 c | B8 | z8 | z8 | z4 z2!p! D2 | G4 z2 G2 | A4 z2 d2 | %32
w: I said the|best,|I|said the best, the|best,|||But|thou, a-|las! a-|
 d4 z2 =e2 | =e4 z2 d2 | d4 (G3 A) | (B6 c2 | d4 c2 B2 | A8) | A8 | A8- | A4 (B2 c2) | d4 z4 | %42
w: las! a-|las! a-|las! a *|las! *|||a-|las!|* sweet *|thou|
 z4 z2 d2 | =e2 f2 e2 A2 | A4 z4 | z4 z2!f! B2 | A3 A B2 c2 | A4 z4 | z8 | z2 F2 FGAA | %50
w: Dost|not re- gard my|vow!|Go,|go, let me not|see,||go, go, let me not|
 B2 d2 dcBG | AABB c2 c2 | B4!p! B4- | B4 A2 G2 | B4 c4 | d4 D2 D2 | G8 | z4 d4- | d2 cB c2 e2 | %59
w: see, go, go, let me not|see, go, go, let me not|see, Cru\-|* el, though|fair- est|thee, fair- est|thee,|cru\-|* el, though fair- est|
 d4 B4- | B4 A2 G2 | F6 G2 | A2 A2 (Bc) d2 | d4 d4- | d2 cB A2 A2 | G16 |] %66
w: thee, cru\-|* el, though|fair- est|thee, though fair\- * est|thee, cru\-|* el, though fair- est|thee.|

